X: 41
T:Courtney's Jig (#151)
M:6/8
L:1/8
S:O'Farrell's Pocket Companion 1804-10
K:D
F/2G/2|A2 d dcd|efe efg|f2 d dfd|cde ABc|
A2 d dcd|efe efg|fad edc|d3 d2:|
|:f/2g/2|aba f2 f|gfg e2 g|fdd ged|cde A2 f/2g/2|
aba f2 f|gfg e2 g|faf gec|d3 d2:||

